X:1510
T:Black Joke
M:6/8
L:1/8
Q:120
S:Trad Morris
R:Jig
K:G
D|DGG GFG|AcB AGF|GAB dcB|AcB AGF|G3E3|DEFG2:|
d|B2dd2d|eded2c|B2dd2 d|eded2c|B2BBAG|AcB AGF|
GAB dcB|AcB AGF|G3E3|DEFG3:|]


